X: 120
M: C
L: 1/16
K: Bb
(d2e2) | f4 (g3f) f4 b2g2 | f4 (d2B2) c4 (d2e2) |
f4 (g3f) f4 (bf3) | (fd3) (c3d) B4 (d2e2) |
f4 (g2f2) f4 (b2g2) | f4 (d2B2) c4 (d3e) |
f4 (g3f) f4 (bf3) | (fd3) (c3d) B4 ][ (f3g/a/) |
(b2a2) (g2f2) f4 (eg) | f4 (d2B2) c4 (f3g/a/) |
(b2a2) (g2f2) f4 (e2g2) | fd3) (c3d) B4 (f3g/a/) |
b2a2 (g2f2) f2 (e3g) | f4 (d2B2) {B}c4 (d2e2) |
(f2g2) (f2e2) (3(d2f2Hb2) g2 | (fd3) (c3d) B4 |]

